src/hero/icons/github.svg

<svg height="21" viewBox="0 0 21 21" width="21" xmlns="http://www.w3.org/2000/svg"><path d="m10.5.437012c-5.525 0-10 4.591238-10 10.253788 0 4.5312 2.865 8.3738 6.8375 9.7285.5.0965.68333-.2208.68333-.493 0-.2435-.00833-.8887-.0125-1.7435-2.78166.6183-3.36833-1.3756-3.36833-1.3756-.455-1.1835-1.1125-1.5-1.1125-1.5-.90583-.6356.07-.6226.07-.6226 1.00417.0713 1.53167 1.0565 1.53167 1.0565.89166 1.5678 2.34083 1.1148 2.9125.8531.09-.6635.3475-1.1148.63333-1.3713-2.22083-.2565-4.555-1.1383-4.555-5.0669 0-1.11912.3875-2.03389 1.02917-2.75127-.1125-.25912-.45-1.30172.0875-2.71387 0 0 .8375-.27478 2.75 1.05129.8-.22782 1.65-.34086 2.50003-.34608.85.00522 1.7.11826 2.5.34608 1.9-1.32607 2.7375-1.05129 2.7375-1.05129.5375 1.41215.2 2.45475.1 2.71387.6375.71738 1.025 1.63215 1.025 2.75127 0 3.9391-2.3375 4.806-4.5625 5.0582.35.3078.675.9365.675 1.8973 0 1.3722-.0125 2.4748-.0125 2.8078 0 .2687.175.5896.6875.487 4.0008-1.3461 6.8633-5.1912 6.8633-9.7155 0-5.66255-4.4775-10.253788-10-10.253788z"/></svg>

<svg width="21" height="21" viewBox="0 0 21 21" xmlns="http://www.w3.org/2000/svg">
<path d="M10.5 0.437012C4.975 0.437012 0.5 5.02825 0.5 10.6908C0.5 15.222 3.365 19.0646 7.3375 20.4193C7.8375 20.5158 8.02083 20.1985 8.02083 19.9263C8.02083 19.6828 8.0125 19.0376 8.00833 18.1828C5.22667 18.8011 4.64 16.8072 4.64 16.8072C4.185 15.6237 3.5275 15.3072 3.5275 15.3072C2.62167 14.6716 3.5975 14.6846 3.5975 14.6846C4.60167 14.7559 5.12917 15.7411 5.12917 15.7411C6.02083 17.3089 7.47 16.8559 8.04167 16.5942C8.13167 15.9307 8.38917 15.4794 8.675 15.2229C6.45417 14.9664 4.12 14.0846 4.12 10.156C4.12 9.03688 4.5075 8.12211 5.14917 7.40473C5.03667 7.14561 4.69917 6.10301 5.23667 4.69086C5.23667 4.69086 6.07417 4.41608 7.98667 5.74215C8.78667 5.51433 9.63667 5.40129 10.4867 5.39607C11.3367 5.40129 12.1867 5.51433 12.9867 5.74215C14.8867 4.41608 15.7242 4.69086 15.7242 4.69086C16.2617 6.10301 15.9242 7.14561 15.8242 7.40473C16.4617 8.12211 16.8492 9.03688 16.8492 10.156C16.8492 14.0951 14.5117 14.962 12.2867 15.2142C12.6367 15.522 12.9617 16.1507 12.9617 17.1115C12.9617 18.4837 12.9492 19.5863 12.9492 19.9193C12.9492 20.188 13.1242 20.5089 13.6367 20.4063C17.6375 19.0602 20.5 15.2151 20.5 10.6908C20.5 5.02825 16.0225 0.437012 10.5 0.437012V0.437012Z"/>
</svg>
